X:1
T:Title
%%score 1 2 3
L:1/8
Q:1/4=100
M:4/4
K:F
V:1 treble nm="Grand Piano"
V:2 bass nm="Grand Piano, Melody"
V:3 bass nm="Grand Piano"
V:1
 z4 c4 | A2 AB c2 cd | f2 fd c4 | A4 GA c2 | d2 c2 c4 | z4 c4 | A2 AB c2 cd | f2 fd c4 | A4 GA c2 | %9
 d2 c2 c4 | z4 c4 | c2 c2 f2 f2 | gfec f4 | f4 c2 c2 | f2 c2 d4 | c4 c2 c2 | f2 f2 gfec | f4 f4 | %18
 dc A2 c2 c2 | c4 c4 | c2 c2 f2 f2 | gfec f4 | f4 c2 c2 | f2 c2 d4 | c4 c2 c2 | f2 f2 gfec | %26
 f4 f4 | dc A2 c2 c2 | c8 |] %29
V:2
 z4 F,4 | A,2 A,F, G,2 G,A, | C2 CG, A,4 | C4 DC[K:bass] A,2 | CA, G,2 F,4 | z4 F,4 | %6
 A,2 A,F, G,2 G,A, | C2 CG, A,4 | C4 DC[K:bass] A,2 | CA, G,2 F,4 | z4[K:treble] C4 | F2 F2 DE F2 | %12
 ECDF C4 | C4 F2 F2 | C2 A,C D4 | C4 F2 F2 | C2 A,2 C2 CB, | A,4 C4 | DC[K:bass] A,2 CA, G,2 | %19
 F,4[K:treble] C4 | F2 F2 DE F2 | ECDF C4 | C4 F2 F2 | C2 A,C D4 | C4 F2 F2 | C2 A,2 C2 CB, | %26
 A,4 C4 | DC[K:bass] A,2 CA, G,2 | F,8 |] %29
V:3
 z4 F,4 | F,2 D,2 F,2 G,2 | C,2 C,D, C,4 | F,4 A,G, F,2 | C,2 D,E, F,4 | z4 F,4 | F,2 D,2 F,2 G,2 | %7
 C,2 C,D, C,4 | F,4 A,G, F,2 | C,2 D,E, F,4 | z4 F,4 | F,2 F,2 A,G, F,2 | CB,A,G, F,4 | %13
 F,4 F,2 F,2 | F,2 D,E, D,4 | C,4 F,2 F,2 | A,2 F,2 G,F, D,2 | F,4 F,4 | A,G, F,2 C,2 D,E, | %19
 F,4 F,4 | F,2 F,2 A,G, F,2 | CB,A,G, F,4 | F,4 F,2 F,2 | F,2 D,E, D,4 | C,4 F,2 F,2 | %25
 A,2 F,2 G,F, D,2 | F,4 F,4 | A,G, F,2 C,2 D,E, | F,8 |] %29

